X: 19
T: Thank You, Diddle!
C: Armand Aromin
H: 1/14/05
M: 6/8
L: 1/8
R: Jig
K: Gmaj
BGG dGG | BGB def | gfe dcB | AGB AFD |
BGG dGG | BGB def | gfe dcB | AGF G3 :|
GDG BGB | dBc def | gfe dcB | AGB AFD |
GDG BGB | dBc def | gfe dcB | AGF G3 :|
